dist/assets/icons/envelope.svg

<svg width="140" height="140" viewBox="0 0 140 140" fill="none" xmlns="http://www.w3.org/2000/svg">
<g clip-path="url(#clip0_24_63)">
<path d="M122.909 16.7288H17.1198C7.67639 16.7288 0 24.4052 0 33.8486V106.151C0 115.595 7.67639 123.271 17.1198 123.271H122.88C132.324 123.271 140 115.595 140 106.151V33.8775C140.029 24.4341 132.353 16.7288 122.909 16.7288ZM132.208 106.151C132.208 111.279 128.036 115.45 122.909 115.45H17.1198C11.9926 115.45 7.82123 111.279 7.82123 106.151V33.8775C7.82123 28.7503 11.9926 24.579 17.1198 24.579H122.88C128.007 24.579 132.179 28.7503 132.179 33.8775V106.151H132.208Z" fill="white" fill-opacity="0.4"/>
<path d="M88.293 69.102L122.533 38.3965C124.126 36.9481 124.271 34.4858 122.822 32.8637C121.374 31.2704 118.912 31.1256 117.289 32.574L70.0724 74.9535L60.8608 66.7267C60.8318 66.6977 60.8028 66.6688 60.8028 66.6398C60.6 66.437 60.3973 66.2632 60.1655 66.0894L22.6816 32.545C21.0594 31.0966 18.5972 31.2415 17.1488 32.8637C15.7004 34.4858 15.8452 36.9481 17.4674 38.3965L52.1126 69.3627L17.6123 101.662C16.048 103.139 15.9611 105.601 17.4385 107.194C18.2206 108.005 19.2634 108.44 20.3062 108.44C21.2622 108.44 22.2181 108.092 22.9712 107.397L57.993 74.6348L67.4943 83.1223C68.2475 83.7886 69.1744 84.1072 70.1014 84.1072C71.0284 84.1072 71.9843 83.7596 72.7085 83.0933L82.4705 74.3451L117.289 107.426C118.043 108.15 119.028 108.498 119.983 108.498C121.026 108.498 122.04 108.092 122.822 107.281C124.3 105.717 124.242 103.226 122.677 101.748L88.293 69.102Z" fill="white" fill-opacity="0.4"/>
</g>
<defs>
<clipPath id="clip0_24_63">
<rect width="140" height="140" fill="white"/>
</clipPath>
</defs>
</svg>

<svg width="140" height="140" fill="none" xmlns="http://www.w3.org/2000/svg"><g clip-path="url(#a)" fill="#fff" fill-opacity=".4"><path d="M122.909 16.729H17.119C7.677 16.729 0 24.405 0 33.849v72.302c0 9.444 7.676 17.12 17.12 17.12h105.76c9.444 0 17.12-7.676 17.12-17.12V33.878c.029-9.444-7.647-17.15-17.091-17.15Zm9.299 89.422c0 5.128-4.172 9.299-9.299 9.299H17.119c-5.126 0-9.298-4.171-9.298-9.299V33.878c0-5.128 4.172-9.299 9.299-9.299h105.76c5.127 0 9.299 4.171 9.299 9.298v72.274h.029Z"/><path d="m88.293 69.102 34.24-30.706a3.93 3.93 0 0 0 .289-5.532 3.93 3.93 0 0 0-5.533-.29l-47.217 42.38-9.211-8.227c-.03-.03-.058-.058-.058-.087a5.786 5.786 0 0 0-.637-.55L22.681 32.544a3.905 3.905 0 0 0-5.533.319 3.905 3.905 0 0 0 .318 5.533l34.646 30.966-34.5 32.299a3.925 3.925 0 0 0-.174 5.532 4.002 4.002 0 0 0 2.867 1.246 3.92 3.92 0 0 0 2.665-1.043l35.022-32.762 9.501 8.487c.754.667 1.68.985 2.607.985.927 0 1.883-.347 2.608-1.014l9.761-8.748 34.819 33.081a3.89 3.89 0 0 0 2.694 1.072 3.907 3.907 0 0 0 2.839-1.217c1.478-1.564 1.42-4.055-.145-5.533L88.293 69.102Z"/></g><defs><clipPath id="a"><path fill="#fff" d="M0 0h140v140H0z"/></clipPath></defs></svg>
